Newaita-dark/apps/128/calibre-ebook-edit.svg

<?xml version="1.0" encoding="UTF-8"?>
<svg xmlns="http://www.w3.org/2000/svg" xmlns:xlink="http://www.w3.org/1999/xlink" width="128pt" height="128pt" viewBox="0 0 128 128" version="1.1">
<defs>
<linearGradient id="linear0" gradientUnits="userSpaceOnUse" x1="254" y1="233.5" x2="254" y2="254.666672" gradientTransform="matrix(0.250024,0,0,0.250024,-0.0000152602,53.75514)">
<stop offset="0" style="stop-color:rgb(0%,0%,0%);stop-opacity:0.27451;"/>
<stop offset="1" style="stop-color:rgb(0%,0%,0%);stop-opacity:0;"/>
</linearGradient>
<radialGradient id="radial0" gradientUnits="userSpaceOnUse" cx="450.908936" cy="189.579361" fx="450.908936" fy="189.579361" r="21.166656" gradientTransform="matrix(0.000000696681,-0.31253,-0.562554,-0.000000406154,200.584342,254.38133)">
<stop offset="0" style="stop-color:rgb(0%,0%,0%);stop-opacity:0.313725;"/>
<stop offset="0.222222" style="stop-color:rgb(0%,0%,0%);stop-opacity:0.27451;"/>
<stop offset="1" style="stop-color:rgb(0%,0%,0%);stop-opacity:0;"/>
</radialGradient>
<radialGradient id="radial1" gradientUnits="userSpaceOnUse" cx="450.908936" cy="189.579361" fx="450.908936" fy="189.579361" r="21.166656" gradientTransform="matrix(-0.000000696681,0.31253,0.562554,0.000000406154,-73.572195,-30.109921)">
<stop offset="0" style="stop-color:rgb(0%,0%,0%);stop-opacity:0.313725;"/>
<stop offset="0.222222" style="stop-color:rgb(0%,0%,0%);stop-opacity:0.27451;"/>
<stop offset="1" style="stop-color:rgb(0%,0%,0%);stop-opacity:0;"/>
</radialGradient>
<radialGradient id="radial2" gradientUnits="userSpaceOnUse" cx="450.908936" cy="189.579361" fx="450.908936" fy="189.579361" r="21.166656" gradientTransform="matrix(-0.000000696681,-0.31253,0.562554,-0.000000406154,-73.572195,254.38133)">
<stop offset="0" style="stop-color:rgb(0%,0%,0%);stop-opacity:0.313725;"/>
<stop offset="0.222222" style="stop-color:rgb(0%,0%,0%);stop-opacity:0.27451;"/>
<stop offset="1" style="stop-color:rgb(0%,0%,0%);stop-opacity:0;"/>
</radialGradient>
<radialGradient id="radial3" gradientUnits="userSpaceOnUse" cx="450.908936" cy="189.579361" fx="450.908936" fy="189.579361" r="21.166656" gradientTransform="matrix(0.000000696681,0.31253,-0.562554,0.000000406154,200.584335,-30.109917)">
<stop offset="0" style="stop-color:rgb(0%,0%,0%);stop-opacity:0.313725;"/>
<stop offset="0.222222" style="stop-color:rgb(0%,0%,0%);stop-opacity:0.27451;"/>
<stop offset="1" style="stop-color:rgb(0%,0%,0%);stop-opacity:0;"/>
</radialGradient>
<linearGradient id="linear1" gradientUnits="userSpaceOnUse" x1="306.916656" y1="-25.791676" x2="305.954559" y2="-141.414581" gradientTransform="matrix(0.301399,0,0,0.869648,-23.416052,134.565393)">
<stop offset="0" style="stop-color:rgb(100%,67.058824%,25.098039%);stop-opacity:1;"/>
<stop offset="1" style="stop-color:rgb(100%,81.960784%,50.196078%);stop-opacity:1;"/>
</linearGradient>
<linearGradient id="linear2" gradientUnits="userSpaceOnUse" x1="165.484848" y1="-25.791672" x2="165.484848" y2="-141.414581" gradientTransform="matrix(4.556143,0,0,13.146184,-353.972656,2034.180176)">
<stop offset="0" style="stop-color:rgb(25.882353%,64.705882%,96.078431%);stop-opacity:1;"/>
<stop offset="1" style="stop-color:rgb(39.215686%,70.980392%,96.470588%);stop-opacity:1;"/>
</linearGradient>
<linearGradient id="linear3" gradientUnits="userSpaceOnUse" x1="840" y1="1115.117188" x2="840" y2="175.117218" gradientTransform="matrix(0.264583,0,0,0.264583,127.000008,-214.999756)">
<stop offset="0" style="stop-color:rgb(25.882353%,64.705882%,96.078431%);stop-opacity:1;"/>
<stop offset="1" style="stop-color:rgb(39.215686%,70.980392%,96.470588%);stop-opacity:1;"/>
</linearGradient>
<linearGradient id="linear4" gradientUnits="userSpaceOnUse" x1="254" y1="148.833328" x2="254" y2="-41.666668" gradientTransform="matrix(1,0,0,1,127,82.638153)">
<stop offset="0" style="stop-color:rgb(37.647059%,49.019608%,54.509804%);stop-opacity:1;"/>
<stop offset="1" style="stop-color:rgb(47.058824%,56.470588%,61.176471%);stop-opacity:1;"/>
</linearGradient>
</defs>
<g id="surface1">
<path style=" stroke:none;fill-rule:nonzero;fill:url(#linear0);" d="M 31.753906 112.136719 L 95.257812 112.136719 L 95.257812 117.429688 L 31.753906 117.429688 Z M 31.753906 112.136719 "/>
<path style=" stroke:none;fill-rule:nonzero;fill:url(#radial0);" d="M 95.257812 112.136719 L 105.84375 112.136719 L 105.84375 106.84375 L 95.257812 106.84375 Z M 95.257812 112.136719 "/>
<path style=" stroke:none;fill-rule:nonzero;fill:url(#radial1);" d="M 31.753906 112.136719 L 21.167969 112.136719 L 21.167969 117.429688 L 31.753906 117.429688 Z M 31.753906 112.136719 "/>
<path style=" stroke:none;fill-rule:nonzero;fill:url(#radial2);" d="M 31.753906 112.136719 L 21.167969 112.136719 L 21.167969 106.84375 L 31.753906 106.84375 Z M 31.753906 112.136719 "/>
<path style=" stroke:none;fill-rule:nonzero;fill:url(#radial3);" d="M 95.257812 112.136719 L 105.84375 112.136719 L 105.84375 117.429688 L 95.257812 117.429688 Z M 95.257812 112.136719 "/>
<path style=" stroke:none;fill-rule:nonzero;fill:url(#linear1);" d="M 26.460938 11.585938 L 100.550781 11.585938 C 103.472656 11.585938 105.84375 13.953125 105.84375 16.875 L 105.84375 106.84375 C 105.84375 109.765625 103.472656 112.136719 100.550781 112.136719 L 26.460938 112.136719 C 23.539062 112.136719 21.167969 109.765625 21.167969 106.84375 L 21.167969 16.875 C 21.167969 13.953125 23.539062 11.585938 26.460938 11.585938 Z M 26.460938 11.585938 "/>
<path style="fill-rule:nonzero;fill:url(#linear2);stroke-width:11.338583;stroke-linecap:round;stroke-linejoin:miter;stroke:rgb(12.941177%,12.941177%,12.941177%);stroke-opacity:1;stroke-miterlimit:4;" d="M 400.001193 175.140764 C 355.655032 175.140764 319.989144 210.806652 319.989144 255.093763 L 319.989144 1615.121439 C 319.989144 1659.408551 355.655032 1695.133488 400.001193 1695.133488 L 519.989741 1695.133488 L 519.989741 175.140764 Z M 400.001193 175.140764 " transform="matrix(0.0661521,0,0,0.0661521,0,0)"/>
<path style=" stroke:none;fill-rule:nonzero;fill:rgb(0%,0%,0%);fill-opacity:0.196078;" d="M 26.460938 111.835938 C 23.527344 111.835938 21.167969 109.476562 21.167969 106.542969 L 21.167969 105.882812 C 21.167969 108.816406 23.527344 111.175781 26.460938 111.175781 L 100.550781 111.175781 C 103.484375 111.175781 105.84375 108.816406 105.84375 105.882812 L 105.84375 106.542969 C 105.84375 109.476562 103.484375 111.835938 100.550781 111.835938 Z M 26.460938 111.835938 "/>
<path style="fill-rule:nonzero;fill:url(#linear3);stroke-width:3;stroke-linecap:round;stroke-linejoin:round;stroke:rgb(12.941177%,12.941177%,12.941177%);stroke-opacity:1;stroke-miterlimit:4;" d="M 328.078045 -168.660675 L 328.078045 85.330695 C 343.951529 43.006612 354.544268 43.006612 370.417752 85.330695 L 370.417752 -168.660675 Z M 328.078045 -168.660675 " transform="matrix(0.250024,0,0,0.250024,0,53.755133)"/>
<path style=" stroke:none;fill-rule:nonzero;fill:rgb(100%,100%,100%);fill-opacity:0.392157;" d="M 26.460938 11.882812 C 23.527344 11.882812 21.167969 14.242188 21.167969 17.175781 L 21.167969 17.835938 C 21.167969 14.90625 23.527344 12.539062 26.460938 12.542969 L 100.550781 12.542969 C 103.484375 12.539062 105.84375 14.90625 105.84375 17.835938 L 105.84375 17.175781 C 105.84375 14.242188 103.484375 11.882812 100.550781 11.882812 Z M 26.460938 11.882812 "/>
<path style=" stroke:none;fill-rule:nonzero;fill:rgb(12.941177%,12.941177%,12.941177%);fill-opacity:1;" d="M 26.460938 11.210938 C 23.328125 11.210938 20.792969 13.742188 20.792969 16.875 L 20.792969 106.84375 C 20.792969 109.976562 23.328125 112.511719 26.460938 112.511719 L 100.550781 112.511719 C 103.683594 112.511719 106.21875 109.976562 106.21875 106.84375 L 106.21875 16.875 C 106.21875 13.742188 103.683594 11.210938 100.550781 11.210938 Z M 26.460938 11.960938 L 100.550781 11.960938 C 103.28125 11.960938 105.46875 14.144531 105.46875 16.875 L 105.46875 106.84375 C 105.46875 109.574219 103.28125 111.761719 100.550781 111.761719 L 26.460938 111.761719 C 23.730469 111.761719 21.542969 109.574219 21.542969 106.84375 L 21.542969 16.875 C 21.542969 14.144531 23.730469 11.960938 26.460938 11.960938 Z M 26.460938 11.960938 "/>
<path style="fill-rule:nonzero;fill:url(#linear4);stroke-width:3;stroke-linecap:round;stroke-linejoin:miter;stroke:rgb(12.941177%,12.941177%,12.941177%);stroke-opacity:1;stroke-miterlimit:4;" d="M 370.417752 42.959741 C 364.558936 42.959741 359.840637 47.678041 359.840637 53.55248 L 359.840637 72.722524 C 356.309724 73.847416 352.888176 75.253532 349.638486 76.925248 L 336.092905 63.379666 C 331.952675 59.239436 325.281437 59.239436 321.125584 63.379666 L 306.158263 78.346987 C 302.018034 82.487216 302.018034 89.174078 306.158263 93.314307 L 319.703845 106.859889 C 318.047753 110.109579 316.641637 113.515503 315.501121 117.046416 L 296.331077 117.046416 C 290.472261 117.046416 285.753962 121.764716 285.753962 127.623531 L 285.753962 148.793384 C 285.753962 154.667823 290.472261 159.386123 296.331077 159.386123 L 315.501121 159.386123 C 316.641637 162.917036 318.047753 166.32296 319.703845 169.57265 L 306.158263 183.118232 C 302.018034 187.258461 302.018034 193.929699 306.158263 198.085552 L 321.125584 213.052873 C 325.281437 217.193103 331.952675 217.193103 336.092905 213.052873 L 349.638486 199.507292 C 352.888176 201.163383 356.309724 202.569499 359.840637 203.710015 L 359.840637 222.88006 C 359.840637 228.738875 364.558936 233.457174 370.417752 233.457174 L 391.587605 233.457174 C 397.446421 233.457174 402.16472 228.738875 402.16472 222.88006 L 402.16472 203.710015 C 405.695633 202.569499 409.101558 201.163383 412.366871 199.507292 L 425.896829 213.052873 C 430.052682 217.193103 436.72392 217.193103 440.86415 213.052873 L 455.83147 198.085552 C 459.987323 193.929699 459.987323 187.258461 455.83147 183.118232 L 442.285889 169.57265 C 443.957604 166.32296 445.36372 162.917036 446.488612 159.386123 L 465.67428 159.386123 C 471.533096 159.386123 476.251395 154.667823 476.251395 148.793384 L 476.251395 127.623531 C 476.251395 121.764716 471.533096 117.046416 465.67428 117.046416 L 446.488612 117.046416 C 445.36372 113.515503 443.957604 110.109579 442.285889 106.859889 L 455.83147 93.314307 C 459.987323 89.174078 459.987323 82.487216 455.83147 78.346987 L 440.86415 63.379666 C 436.72392 59.239436 430.052682 59.239436 425.896829 63.379666 L 412.351247 76.925248 C 409.101558 75.253532 405.695633 73.847416 402.16472 72.722524 L 402.16472 53.55248 C 402.16472 47.678041 397.446421 42.959741 391.587605 42.959741 Z M 380.994867 95.876563 C 404.445752 95.876563 423.334574 114.765384 423.334574 138.21627 C 423.334574 161.667155 404.445752 180.540353 380.994867 180.540353 C 357.543981 180.540353 338.670784 161.667155 338.670784 138.21627 C 338.670784 114.765384 357.543981 95.876563 380.994867 95.876563 Z M 380.994867 95.876563 " transform="matrix(0.250024,0,0,0.250024,0,53.755133)"/>
</g>
</svg>

<svg xmlns="http://www.w3.org/2000/svg" width="128pt" height="128pt" viewBox="0 0 128 128"><defs><linearGradient id="a" gradientUnits="userSpaceOnUse" x1="254" y1="233.5" x2="254" y2="254.667" gradientTransform="matrix(.25002 0 0 .25002 0 53.755)"><stop offset="0" stop-opacity=".275"/><stop offset="1" stop-opacity="0"/></linearGradient><radialGradient id="b" gradientUnits="userSpaceOnUse" cx="450.909" cy="189.579" fx="450.909" fy="189.579" r="21.167" gradientTransform="matrix(0 -.31253 -.56255 0 200.584 254.381)"><stop offset="0" stop-opacity=".314"/><stop offset=".222" stop-opacity=".275"/><stop offset="1" stop-opacity="0"/></radialGradient><radialGradient id="c" gradientUnits="userSpaceOnUse" cx="450.909" cy="189.579" fx="450.909" fy="189.579" r="21.167" gradientTransform="matrix(0 .31253 .56255 0 -73.572 -30.11)"><stop offset="0" stop-opacity=".314"/><stop offset=".222" stop-opacity=".275"/><stop offset="1" stop-opacity="0"/></radialGradient><radialGradient id="d" gradientUnits="userSpaceOnUse" cx="450.909" cy="189.579" fx="450.909" fy="189.579" r="21.167" gradientTransform="matrix(0 -.31253 .56255 0 -73.572 254.381)"><stop offset="0" stop-opacity=".314"/><stop offset=".222" stop-opacity=".275"/><stop offset="1" stop-opacity="0"/></radialGradient><radialGradient id="e" gradientUnits="userSpaceOnUse" cx="450.909" cy="189.579" fx="450.909" fy="189.579" r="21.167" gradientTransform="matrix(0 .31253 -.56255 0 200.584 -30.11)"><stop offset="0" stop-opacity=".314"/><stop offset=".222" stop-opacity=".275"/><stop offset="1" stop-opacity="0"/></radialGradient><linearGradient id="f" gradientUnits="userSpaceOnUse" x1="306.917" y1="-25.792" x2="305.955" y2="-141.415" gradientTransform="matrix(.3014 0 0 .86965 -23.416 134.565)"><stop offset="0" stop-color="#ffab40"/><stop offset="1" stop-color="#ffd180"/></linearGradient><linearGradient id="g" gradientUnits="userSpaceOnUse" x1="165.485" y1="-25.792" x2="165.485" y2="-141.415" gradientTransform="matrix(4.55614 0 0 13.14618 -353.973 2034.18)"><stop offset="0" stop-color="#42a5f5"/><stop offset="1" stop-color="#64b5f6"/></linearGradient><linearGradient id="h" gradientUnits="userSpaceOnUse" x1="840" y1="1115.117" x2="840" y2="175.117" gradientTransform="matrix(.26458 0 0 .26458 127 -215)"><stop offset="0" stop-color="#42a5f5"/><stop offset="1" stop-color="#64b5f6"/></linearGradient><linearGradient id="i" gradientUnits="userSpaceOnUse" x1="254" y1="148.833" x2="254" y2="-41.667" gradientTransform="translate(127 82.638)"><stop offset="0" stop-color="#607d8b"/><stop offset="1" stop-color="#78909c"/></linearGradient></defs><path d="M31.754 112.137h63.504v5.293H31.754zm0 0" fill="url(#a)"/><path d="M95.258 112.137h10.586v-5.293H95.258zm0 0" fill="url(#b)"/><path d="M31.754 112.137H21.168v5.293h10.586zm0 0" fill="url(#c)"/><path d="M31.754 112.137H21.168v-5.293h10.586zm0 0" fill="url(#d)"/><path d="M95.258 112.137h10.586v5.293H95.258zm0 0" fill="url(#e)"/><path d="M26.46 11.586h74.09a5.291 5.291 0 0 1 5.294 5.289v89.969a5.295 5.295 0 0 1-5.293 5.293H26.46a5.295 5.295 0 0 1-5.293-5.293V16.875a5.291 5.291 0 0 1 5.293-5.29zm0 0" fill="url(#f)"/><path d="M400.001 175.14c-44.346 0-80.012 35.667-80.012 79.954V1615.12c0 44.288 35.666 80.012 80.012 80.012H519.99V175.141zm0 0" transform="scale(.06615)" fill="url(#g)" stroke-width="11.339" stroke-linecap="round" stroke="#212121"/><path d="M26.46 111.836a5.28 5.28 0 0 1-5.292-5.293v-.66a5.28 5.28 0 0 0 5.293 5.293h74.09a5.28 5.28 0 0 0 5.293-5.293v.66a5.28 5.28 0 0 1-5.293 5.293zm0 0" fill-opacity=".196"/><path d="M328.078-168.66V85.33c15.874-42.323 26.466-42.323 42.34 0v-253.99zm0 0" transform="matrix(.25002 0 0 .25002 0 53.755)" fill="url(#h)" stroke-width="3" stroke-linecap="round" stroke-linejoin="round" stroke="#212121"/><path d="M26.46 11.883a5.28 5.28 0 0 0-5.292 5.293v.66a5.28 5.28 0 0 1 5.293-5.293h74.09a5.28 5.28 0 0 1 5.293 5.293v-.66a5.28 5.28 0 0 0-5.293-5.293zm0 0" fill="#fff" fill-opacity=".392"/><path d="M26.46 11.21a5.661 5.661 0 0 0-5.667 5.665v89.969a5.665 5.665 0 0 0 5.668 5.668h74.09a5.665 5.665 0 0 0 5.668-5.668V16.875a5.661 5.661 0 0 0-5.668-5.664zm0 .75h74.09a4.896 4.896 0 0 1 4.919 4.915v89.969a4.9 4.9 0 0 1-4.918 4.918H26.46a4.9 4.9 0 0 1-4.918-4.918V16.875a4.896 4.896 0 0 1 4.918-4.914zm0 0" fill="#212121"/><path d="M370.418 42.96a10.559 10.559 0 0 0-10.577 10.592v19.17a66.347 66.347 0 0 0-10.203 4.203L336.093 63.38c-4.14-4.14-10.812-4.14-14.967 0l-14.968 14.967a10.57 10.57 0 0 0 0 14.967l13.546 13.546a69.433 69.433 0 0 0-4.203 10.186h-19.17a10.555 10.555 0 0 0-10.577 10.578v21.17a10.559 10.559 0 0 0 10.577 10.592h19.17a69.433 69.433 0 0 0 4.203 10.187l-13.546 13.545c-4.14 4.14-4.14 10.812 0 14.968l14.968 14.967c4.155 4.14 10.827 4.14 14.967 0l13.545-13.546a69.619 69.619 0 0 0 10.203 4.203v19.17a10.555 10.555 0 0 0 10.577 10.577h21.17a10.555 10.555 0 0 0 10.577-10.577v-19.17a70.334 70.334 0 0 0 10.202-4.203l13.53 13.546c4.156 4.14 10.827 4.14 14.967 0l14.967-14.967a10.543 10.543 0 0 0 0-14.968l-13.545-13.545a66.17 66.17 0 0 0 4.203-10.187h19.185a10.559 10.559 0 0 0 10.577-10.593v-21.17a10.555 10.555 0 0 0-10.577-10.577H446.49a66.17 66.17 0 0 0-4.203-10.186l13.545-13.546a10.543 10.543 0 0 0 0-14.967L440.864 63.38c-4.14-4.14-10.811-4.14-14.967 0L412.35 76.925a66.17 66.17 0 0 0-10.186-4.202v-19.17a10.559 10.559 0 0 0-10.577-10.593zm10.577 52.917c23.45 0 42.34 18.888 42.34 42.34 0 23.45-18.89 42.323-42.34 42.323-23.451 0-42.324-18.873-42.324-42.324 0-23.45 18.873-42.34 42.324-42.34zm0 0" transform="matrix(.25002 0 0 .25002 0 53.755)" fill="url(#i)" stroke-width="3" stroke-linecap="round" stroke="#212121"/></svg>
